svg/baby_female_0306m_negative.svg

<svg width="48" height="48" viewBox="0 0 48 48" fill="none" xmlns="http://www.w3.org/2000/svg">
<path fill-rule="evenodd" clip-rule="evenodd" d="M0 0V47.9994H47.9994V0H0ZM20.6537 3.99795C22.9967 3.89495 24.8767 5.55083 20.5547 6.54292C23.4067 5.10664 21.2347 4.48254 19.6928 5.74793C17.9348 7.33951 22.0477 7.15211 22.9257 7.7987C23.2827 7.774 23.6407 7.761 23.9997 7.7597C30.2236 7.7612 35.7296 11.2659 37.6045 16.4218C37.9095 16.3508 38.2215 16.3138 38.5345 16.3118C40.8475 16.3118 42.7225 18.1868 42.7225 20.4997C42.7215 20.8517 42.6755 21.2017 42.5875 21.5427C42.5625 21.5107 42.5365 21.4797 42.5115 21.4487C43.4725 22.6587 43.9974 24.1577 43.9995 25.7027C43.9995 29.4876 40.9315 32.5566 37.1455 32.5566C35.2346 32.5536 33.4116 31.7526 32.1166 30.3476C29.7326 31.7826 26.9007 32.5536 23.9997 32.5566C18.0618 32.5496 12.7488 29.3506 10.6579 24.5227C10.2819 24.6317 9.89168 24.6867 9.49988 24.6877C7.18721 24.6877 5.31243 22.8127 5.31243 20.4997C5.31243 18.1868 7.18721 16.3118 9.49988 16.3118C9.80678 16.3128 10.1129 16.3478 10.4119 16.4158C11.7669 12.7098 15.0458 9.77008 19.2678 8.47649C17.7858 7.9616 16.7258 7.12381 17.7128 5.45503C18.4288 4.45394 19.5898 4.04485 20.6537 3.99795ZM23.9997 9.46078C17.3758 9.46748 11.9449 14.0238 11.7069 19.7727C11.3939 18.8197 10.5039 18.1747 9.49988 18.1737C8.2151 18.1737 7.17361 19.2147 7.17371 20.4996C7.17361 21.7846 8.2151 22.8256 9.49988 22.8256C10.5489 22.8246 11.4669 22.1216 11.7419 21.1086C12.3088 26.6236 17.6258 30.8515 23.9997 30.8545C26.5377 30.8495 29.0116 30.1635 31.0836 28.8905C30.5656 27.9075 30.2936 26.8136 30.2926 25.7026C30.2966 22.2826 32.8206 19.3897 36.2085 18.9217C35.4876 13.5357 30.2416 9.47118 23.9997 9.46068V9.46078ZM20.0177 16.9998C20.8497 16.9998 21.5247 17.6748 21.5247 18.5078C21.5247 19.3398 20.8497 20.0147 20.0177 20.0158C19.1848 20.0147 18.5098 19.3398 18.5098 18.5078C18.5098 17.6748 19.1848 16.9998 20.0177 16.9998ZM28.0176 16.9998C28.8496 16.9998 29.5246 17.6748 29.5246 18.5078C29.5246 19.3398 28.8496 20.0147 28.0176 20.0158C27.1847 20.0147 26.5097 19.3398 26.5097 18.5078C26.5097 17.6748 27.1847 16.9998 28.0176 16.9998ZM38.5345 18.1738C37.9175 18.1758 37.3275 18.4218 36.8925 18.8588C36.8635 18.8618 36.8345 18.8638 36.8065 18.8668C36.9195 18.8588 37.0325 18.8528 37.1455 18.8498C38.4315 18.8508 39.6915 19.2128 40.7805 19.8957C40.5075 18.8798 39.5865 18.1738 38.5345 18.1738ZM37.1455 19.9098C34.1706 19.9098 31.6796 22.1637 31.3826 25.1247C31.3626 25.3167 31.3536 25.5097 31.3536 25.7027C31.3536 27.2097 31.9406 28.6566 32.9896 29.7376C33.2596 30.0156 33.5556 30.2656 33.8746 30.4836C34.1936 30.7026 34.5336 30.8886 34.8906 31.0386C35.2466 31.1896 35.6166 31.3036 35.9955 31.3806C36.3745 31.4576 36.7595 31.4956 37.1455 31.4956C38.6525 31.4956 40.1005 30.9086 41.1815 29.8586C41.4585 29.5896 41.7085 29.2936 41.9275 28.9746C42.1455 28.6546 42.3315 28.3146 42.4815 27.9586C42.6325 27.6027 42.7465 27.2317 42.8235 26.8537C42.9005 26.4747 42.9385 26.0887 42.9385 25.7027C42.9385 24.1957 42.3515 22.7487 41.3025 21.6677C41.0325 21.3897 40.7365 21.1397 40.4175 20.9217C40.0985 20.7037 39.7585 20.5177 39.4015 20.3667C39.0455 20.2167 38.6755 20.1017 38.2965 20.0247C37.9175 19.9487 37.5325 19.9098 37.1455 19.9098ZM38.9955 21.8477L39.7575 22.5737L40.3785 21.9527L40.8625 22.4377L40.2395 23.0937L40.9665 23.8197L40.4815 24.3047L39.7575 23.5777L38.4765 24.8217C38.8905 25.3407 39.1325 25.9977 39.1325 26.6537C39.1325 28.2786 37.8205 29.5586 36.2295 29.5586C34.6396 29.5586 33.3256 28.2786 33.3256 26.6537C33.3256 25.0637 34.6396 23.7847 36.2295 23.7847C36.8525 23.7847 37.4755 23.9907 37.9935 24.3707L39.2705 23.0937L38.5115 22.3317L38.9955 21.8477ZM19.1718 23.6407C19.4188 23.6177 19.6908 23.8147 19.7578 24.2987C19.9577 25.8727 21.8037 27.0787 24.0177 27.0797C26.3047 27.0327 28.1356 25.9517 29.3066 24.2987C29.1026 26.2777 26.7957 27.8097 24.0177 27.8107C21.2407 27.8077 18.9368 26.2767 18.7338 24.2987C18.7018 23.9047 18.9248 23.6627 19.1718 23.6407ZM36.2295 24.4407C35.0206 24.4407 34.0176 25.4437 34.0176 26.6537C34.0176 27.8986 35.0206 28.8996 36.2295 28.8996C37.4395 28.8996 38.4405 27.8986 38.4405 26.6537C38.4405 25.4437 37.4395 24.4407 36.2295 24.4407ZM3.99995 33.9996H43.9995V43.9995H3.99995V33.9996ZM7.8671 35.0956C7.03901 35.0956 6.40472 35.3696 5.96283 35.9195C5.52443 36.4695 5.30463 37.2765 5.30463 38.3375V39.7355C5.31503 40.7555 5.54003 41.5375 5.97842 42.0835C6.41682 42.6295 7.04871 42.9035 7.8769 42.9035C8.71539 42.9035 9.35208 42.6245 9.78698 42.0675C10.2219 41.5115 10.4389 40.7085 10.4389 39.6575V38.2595C10.4289 37.2395 10.2059 36.4585 9.76748 35.9155C9.32908 35.3696 8.69519 35.0956 7.8671 35.0956ZM13.8628 35.0956C13.4008 35.0956 12.9758 35.1836 12.5898 35.3606C12.2068 35.5386 11.9089 35.7865 11.6929 36.1035C11.4809 36.4165 11.3749 36.7705 11.3749 37.1675H12.8828C12.8828 36.9135 12.9808 36.7085 13.1758 36.5525C13.3708 36.3925 13.6118 36.3115 13.8998 36.3115C14.2208 36.3115 14.4708 36.3975 14.6518 36.5675C14.8368 36.7385 14.9298 36.9765 14.9298 37.2825C14.9298 37.5995 14.8368 37.8535 14.6518 38.0445C14.4678 38.2355 14.1838 38.3315 13.8008 38.3315H12.9978V39.5115H13.7968C14.6318 39.5115 15.0488 39.8895 15.0488 40.6475C15.0488 40.9615 14.9458 41.2145 14.7398 41.4055C14.5378 41.5935 14.2588 41.6875 13.8998 41.6875C13.5868 41.6875 13.3228 41.5965 13.1068 41.4155C12.8948 41.2345 12.7888 41.0015 12.7888 40.7165H11.2809C11.2809 41.3735 11.5199 41.9045 11.9998 42.3045C12.4838 42.7045 13.1048 42.9035 13.8628 42.9035C14.6738 42.9035 15.3258 42.6995 15.8158 42.2925C16.3108 41.8855 16.5568 41.3445 16.5568 40.6695C16.5568 40.2515 16.4508 39.8895 16.2378 39.5835C16.0298 39.2775 15.7108 39.0495 15.2828 38.8955C15.6278 38.7395 15.9068 38.5145 16.1188 38.2225C16.3308 37.9295 16.4378 37.6095 16.4378 37.2615C16.4378 36.5865 16.2098 36.0585 15.7538 35.6756C15.2978 35.2896 14.6668 35.0956 13.8628 35.0956ZM24.2967 35.0956C23.4687 35.0956 22.8337 35.3696 22.3927 35.9195C21.9537 36.4695 21.7337 37.2765 21.7337 38.3375V39.7355C21.7447 40.7555 21.9697 41.5375 22.4077 42.0835C22.8467 42.6295 23.4797 42.9035 24.3087 42.9035C25.1467 42.9035 25.7837 42.6245 26.2187 42.0675C26.6537 41.5115 26.8707 40.7085 26.8707 39.6575V38.2595C26.8607 37.2395 26.6357 36.4585 26.1967 35.9155C25.7587 35.3696 25.1247 35.0956 24.2967 35.0956ZM31.7336 35.1226C30.9646 35.1266 30.2896 35.2996 29.7046 35.6476C29.1236 35.9925 28.6756 36.4815 28.3626 37.1145C28.0537 37.7445 27.8977 38.4715 27.8977 39.2965V39.8395C27.8977 40.7685 28.1436 41.5115 28.6346 42.0675C29.1286 42.6245 29.7756 42.9035 30.5756 42.9035C31.0696 42.9035 31.5126 42.7925 31.9016 42.5695C32.2956 42.3475 32.5976 42.0365 32.8106 41.6365C33.0256 41.2365 33.1346 40.7885 33.1346 40.2945C33.1346 39.5215 32.9386 38.8985 32.5486 38.4255C32.1586 37.9525 31.6336 37.7165 30.9726 37.7165C30.3566 37.7165 29.8466 37.9205 29.4426 38.3315C29.5266 37.7195 29.7746 37.2405 30.1886 36.8955C30.6066 36.5515 31.1576 36.3755 31.8396 36.3645H31.9856V35.1226H31.7336ZM34.1926 35.2006V42.7985H35.7595V40.7225L35.6016 37.1425L37.6475 42.7985H38.7245L40.7745 37.1365L40.6185 40.7225V42.7985H42.1885V35.2006H40.1325L38.1905 40.7125L36.2395 35.2006H34.1926ZM7.8669 36.3155C8.2322 36.3155 8.49909 36.4605 8.66959 36.7495C8.84359 37.0345 8.93129 37.4925 8.93129 38.1225V39.9295C8.92439 40.5245 8.83899 40.9645 8.67549 41.2535C8.51189 41.5425 8.2455 41.6875 7.8767 41.6875C7.50431 41.6875 7.23271 41.5375 7.06221 41.2375C6.89521 40.9355 6.81221 40.4745 6.81221 39.8545V38.0075C6.82261 37.4265 6.91081 37.0015 7.07781 36.7295C7.24831 36.4555 7.51201 36.3155 7.8669 36.3155ZM24.2967 36.3155C24.6617 36.3155 24.9307 36.4605 25.1017 36.7495C25.2757 37.0345 25.3607 37.4925 25.3607 38.1225V39.9295C25.3537 40.5245 25.2707 40.9645 25.1067 41.2535C24.9437 41.5425 24.6767 41.6875 24.3087 41.6875C23.9357 41.6875 23.6647 41.5375 23.4937 41.2375C23.3267 40.9355 23.2437 40.4745 23.2437 39.8545V38.0075C23.2547 37.4265 23.3427 37.0015 23.5097 36.7295C23.6797 36.4555 23.9417 36.3155 24.2967 36.3155ZM30.5136 38.9275C30.8546 38.9275 31.1256 39.0545 31.3276 39.3085C31.5296 39.5625 31.6306 39.8955 31.6306 40.3105C31.6306 40.7175 31.5296 41.0485 31.3276 41.3065C31.1296 41.5605 30.8686 41.6875 30.5446 41.6875C30.1866 41.6875 29.9066 41.5465 29.7086 41.2655C29.5106 40.9795 29.4116 40.5845 29.4116 40.0795V39.6205C29.5056 39.4115 29.6526 39.2435 29.8516 39.1185C30.0496 38.9895 30.2696 38.9275 30.5136 38.9275ZM17.6578 38.9375V40.1535H20.5977V38.9375H17.6578Z" fill="#333333"/>
</svg>

<?xml version="1.0" encoding="UTF-8" standalone="no"?>
<!-- Created with Inkscape (http://www.inkscape.org/) -->
<svg id="svg8" xmlns:rdf="http://www.w3.org/1999/02/22-rdf-syntax-ns#" xmlns="http://www.w3.org/2000/svg" xmlns:osb="http://www.openswatchbook.org/uri/2009/osb" height="48" width="48" version="1.1" xmlns:cc="http://creativecommons.org/ns#" viewBox="0 0 12.7 12.7" xmlns:dc="http://purl.org/dc/elements/1.1/">
 <title id="title4753">UIO-icon</title>
 <metadata id="metadata5">
  <rdf:RDF>
   <cc:Work rdf:about="">
    <dc:format>image/svg+xml</dc:format>
    <dc:type rdf:resource="http://purl.org/dc/dcmitype/StillImage"/>
    <dc:title>UIO-icon</dc:title>
    <dc:creator>
     <cc:Agent>
      <dc:title>Joaquín Urbano</dc:title>
     </cc:Agent>
    </dc:creator>
    <dc:rights>
     <cc:Agent>
      <dc:title>GPL</dc:title>
     </cc:Agent>
    </dc:rights>
   </cc:Work>
  </rdf:RDF>
 </metadata>
 <g id="layer1" transform="translate(0,-284.3)">
  <path id="rect13404" d="m0 0v48h48v-48h-48zm20.654 3.998c2.343-0.103 4.223 1.5529-0.099 2.545 2.852-1.4363 0.68-2.0604-0.862-0.795-1.758 1.5916 2.355 1.4042 3.233 2.0508 0.357-0.0247 0.715-0.0377 1.074-0.039 6.224 0.0015 11.73 3.5062 13.605 8.6622 0.305-0.071 0.617-0.108 0.93-0.11 2.313 0 4.188 1.875 4.188 4.188-0.001 0.352-0.047 0.702-0.135 1.043-0.025-0.032-0.051-0.063-0.076-0.094 0.961 1.21 1.486 2.709 1.488 4.254 0 3.785-3.068 6.854-6.854 6.854-1.911-0.003-3.734-0.804-5.029-2.209-2.384 1.435-5.216 2.206-8.117 2.209-5.938-0.007-11.251-3.206-13.342-8.034-0.376 0.109-0.7662 0.164-1.158 0.165-2.3127 0-4.1875-1.875-4.1875-4.188s1.8748-4.188 4.1875-4.188c0.3069 0.001 0.613 0.036 0.912 0.104 1.355-3.706 4.634-6.6458 8.856-7.9394-1.482-0.5149-2.542-1.3527-1.555-3.0215 0.716-1.0011 1.877-1.4102 2.941-1.4571zm3.346 5.4629c-6.624 0.0067-12.055 4.5631-12.293 10.312-0.313-0.953-1.203-1.598-2.207-1.599-1.2848 0-2.3263 1.041-2.3262 2.326-0.0001 1.285 1.0414 2.326 2.3262 2.326 1.049-0.001 1.967-0.704 2.242-1.717 0.567 5.515 5.884 9.743 12.258 9.746 2.538-0.005 5.012-0.691 7.084-1.964-0.518-0.983-0.79-2.077-0.791-3.188 0.004-3.42 2.528-6.313 5.916-6.781-0.721-5.386-5.967-9.4506-12.209-9.4611zm-3.982 7.5391c0.832 0 1.507 0.675 1.507 1.508 0 0.832-0.675 1.507-1.507 1.508-0.833-0.001-1.508-0.676-1.508-1.508 0-0.833 0.675-1.508 1.508-1.508zm8 0c0.832 0 1.507 0.675 1.507 1.508 0 0.832-0.675 1.507-1.507 1.508-0.833-0.001-1.508-0.676-1.508-1.508 0-0.833 0.675-1.508 1.508-1.508zm10.517 1.174c-0.617 0.002-1.207 0.248-1.642 0.685-0.029 0.003-0.058 0.005-0.086 0.008 0.113-0.008 0.226-0.014 0.339-0.017 1.286 0.001 2.546 0.363 3.635 1.046-0.273-1.016-1.194-1.722-2.246-1.722zm-1.389 1.736c-2.975 0-5.466 2.254-5.763 5.215-0.02 0.192-0.029 0.385-0.029 0.578 0 1.507 0.587 2.954 1.636 4.035 0.27 0.278 0.566 0.528 0.885 0.746 0.319 0.219 0.659 0.405 1.016 0.555 0.356 0.151 0.726 0.265 1.105 0.342s0.764 0.115 1.15 0.115c1.507 0 2.955-0.587 4.036-1.637 0.277-0.269 0.527-0.565 0.746-0.884 0.218-0.32 0.404-0.66 0.554-1.016 0.151-0.356 0.265-0.727 0.342-1.105 0.077-0.379 0.115-0.765 0.115-1.151 0-1.507-0.587-2.954-1.636-4.035-0.27-0.278-0.566-0.528-0.885-0.746s-0.659-0.404-1.016-0.555c-0.356-0.15-0.726-0.265-1.105-0.342-0.379-0.076-0.764-0.115-1.151-0.115zm1.85 1.938l0.762 0.726 0.621-0.621 0.484 0.485-0.623 0.656 0.727 0.726-0.485 0.485-0.724-0.727-1.281 1.244c0.414 0.519 0.656 1.176 0.656 1.832 0 1.625-1.312 2.905-2.903 2.905-1.59 0-2.904-1.28-2.904-2.905 0-1.59 1.314-2.869 2.904-2.869 0.623 0 1.246 0.206 1.764 0.586l1.277-1.277-0.759-0.762 0.484-0.484zm-19.824 1.793c0.247-0.023 0.519 0.174 0.586 0.658 0.2 1.574 2.046 2.78 4.26 2.781 2.287-0.047 4.118-1.128 5.289-2.781-0.204 1.979-2.511 3.511-5.289 3.512-2.777-0.003-5.081-1.534-5.284-3.512-0.032-0.394 0.191-0.636 0.438-0.658zm17.058 0.8c-1.209 0-2.212 1.003-2.212 2.213 0 1.245 1.003 2.246 2.212 2.246 1.21 0 2.211-1.001 2.211-2.246 0-1.21-1.001-2.213-2.211-2.213zm-32.23 9.559h40v10h-40v-10zm3.8672 1.096c-0.8281 0-1.4624 0.274-1.9043 0.824-0.4384 0.55-0.6582 1.357-0.6582 2.418v1.398c0.0104 1.02 0.2354 1.802 0.6738 2.348s1.0703 0.82 1.8985 0.82c0.8385 0 1.4752-0.279 1.9101-0.836 0.4349-0.556 0.6519-1.359 0.6519-2.41v-1.398c-0.01-1.02-0.233-1.801-0.6714-2.344-0.4384-0.546-1.0723-0.82-1.9004-0.82zm5.9958 0c-0.462 0-0.887 0.088-1.273 0.265-0.383 0.178-0.681 0.426-0.897 0.743-0.212 0.313-0.318 0.667-0.318 1.064h1.508c0-0.254 0.098-0.459 0.293-0.615 0.195-0.16 0.436-0.241 0.724-0.241 0.321 0 0.571 0.086 0.752 0.256 0.185 0.171 0.278 0.409 0.278 0.715 0 0.317-0.093 0.571-0.278 0.762-0.184 0.191-0.468 0.287-0.851 0.287h-0.803v1.18h0.799c0.835 0 1.252 0.378 1.252 1.136 0 0.314-0.103 0.567-0.309 0.758-0.202 0.188-0.481 0.282-0.84 0.282-0.313 0-0.577-0.091-0.793-0.272-0.212-0.181-0.318-0.414-0.318-0.699h-1.508c0 0.657 0.239 1.188 0.719 1.588 0.484 0.4 1.105 0.599 1.863 0.599 0.811 0 1.463-0.204 1.953-0.611 0.495-0.407 0.741-0.948 0.741-1.623 0-0.418-0.106-0.78-0.319-1.086-0.208-0.306-0.527-0.534-0.955-0.688 0.345-0.156 0.624-0.381 0.836-0.673 0.212-0.293 0.319-0.613 0.319-0.961 0-0.675-0.228-1.203-0.684-1.586-0.456-0.386-1.087-0.58-1.891-0.58zm10.434 0c-0.828 0-1.463 0.274-1.904 0.824-0.439 0.55-0.659 1.357-0.659 2.418v1.398c0.011 1.02 0.236 1.802 0.674 2.348 0.439 0.546 1.072 0.82 1.901 0.82 0.838 0 1.475-0.279 1.91-0.836 0.435-0.556 0.652-1.359 0.652-2.41v-1.398c-0.01-1.02-0.235-1.801-0.674-2.344-0.438-0.546-1.072-0.82-1.9-0.82zm7.437 0.027c-0.769 0.004-1.444 0.177-2.029 0.525-0.581 0.345-1.029 0.834-1.342 1.467-0.309 0.63-0.465 1.357-0.465 2.182v0.543c0 0.929 0.246 1.672 0.737 2.228 0.494 0.557 1.141 0.836 1.941 0.836 0.494 0 0.937-0.111 1.326-0.334 0.394-0.222 0.696-0.533 0.909-0.933 0.215-0.4 0.324-0.848 0.324-1.342 0-0.773-0.196-1.396-0.586-1.869s-0.915-0.709-1.576-0.709c-0.616 0-1.126 0.204-1.53 0.615 0.084-0.612 0.332-1.091 0.746-1.436 0.418-0.344 0.969-0.52 1.651-0.531h0.146v-1.242h-0.252zm2.459 0.078v7.598h1.567v-2.076l-0.158-3.58 2.046 5.656h1.077l2.05-5.662-0.156 3.586v2.076h1.57v-7.598h-2.056l-1.942 5.512-1.951-5.512h-2.047zm-26.326 1.115c0.3653 0 0.6322 0.145 0.8027 0.434 0.174 0.285 0.2617 0.743 0.2617 1.373v1.807c-0.0069 0.595-0.0923 1.035-0.2558 1.324-0.1636 0.289-0.43 0.434-0.7988 0.434-0.3724 0-0.644-0.15-0.8145-0.45-0.167-0.302-0.25-0.763-0.25-1.383v-1.847c0.0104-0.581 0.0986-1.006 0.2656-1.278 0.1705-0.274 0.4342-0.414 0.7891-0.414zm16.43 0c0.365 0 0.634 0.145 0.805 0.434 0.174 0.285 0.259 0.743 0.259 1.373v1.807c-0.007 0.595-0.09 1.035-0.254 1.324-0.163 0.289-0.43 0.434-0.798 0.434-0.373 0-0.644-0.15-0.815-0.45-0.167-0.302-0.25-0.763-0.25-1.383v-1.847c0.011-0.581 0.099-1.006 0.266-1.278 0.17-0.274 0.432-0.414 0.787-0.414zm6.217 2.612c0.341 0 0.612 0.127 0.814 0.381s0.303 0.587 0.303 1.002c0 0.407-0.101 0.738-0.303 0.996-0.198 0.254-0.459 0.381-0.783 0.381-0.358 0-0.638-0.141-0.836-0.422-0.198-0.286-0.297-0.681-0.297-1.186v-0.459c0.094-0.209 0.241-0.377 0.44-0.502 0.198-0.129 0.418-0.191 0.662-0.191zm-12.856 0.01v1.216h2.94v-1.216h-2.94z" fill-rule="evenodd" transform="matrix(.26458 0 0 .26458 0 284.3)" fill="#333"/>
 </g>
</svg>
